X:87
T:Polska
C:e. Pelle Pettersson
R:Polska
O:Sweden
A:N\"arke
D:Bl\aa{} Bergens Borduner (Stake/Karlsson/Fredriksson/Ekedahl) AMCD 727
N:Sleevenotes say it was transcribed from a clarinet-player in the 1800s
M:3/4
K:A
ce cc c2| cB/2c/2 dc BA| A/2G/2F/2G/2 AE ~FE|\
ce cc c2| cB/2c/2 dc BA| G/2A/2B/2c/2 B2 A2::
Ac cA B/2A/2F/2A/2| GB BG A/2G/2F/2G/2|\
Ac cA B/2A/2F/2A/2| GB BG A/2G/2F/2G/2|\
Ac GA FG/2F/2 | E/2F/2G/2E/2 F4:|

